svgs/smartpack_kernel_manager.svg

<svg width="192" height="192" viewBox="0 0 192 192" fill="none" xmlns="http://www.w3.org/2000/svg"><path d="m80.16 29.054-5.958-.709 5.958.71Zm31.68 0 5.958-.709-5.958.71Zm34.217 19.756-2.365-5.515 2.365 5.514Zm10.081 3.352 5.196-3-5.196 3Zm7.896 13.676 5.196-3-5.196 3Zm-2.137 10.407-3.594-4.805 3.594 4.805Zm0 39.51 3.593-4.805-3.593 4.805Zm2.137 10.407 5.196 3-5.196-3Zm-7.896 13.676-5.196-3 5.196 3Zm-10.081 3.353 2.364-5.515-2.364 5.515Zm-34.217 19.755 5.958.709-5.958-.709Zm-31.68 0-5.958.709 5.958-.709Zm-34.217-19.755-2.364-5.515 2.364 5.515Zm-10.08-3.353-5.197 3 5.196-3Zm-7.897-13.676 5.196-3-5.196 3Zm2.137-10.407 3.594 4.805-3.594-4.805Zm0-39.51L26.51 81.05l3.593-4.805Zm-2.137-10.407 5.196 3-5.196-3Zm7.896-13.676-5.196-3 5.196 3Zm10.081-3.352 2.365-5.515-2.365 5.514Zm33.205-11.252-5.958-.709 5.958.71ZM53.792 139.825l2.365 5.514-2.365-5.514ZM36.236 111.17l3.593 4.805-3.593-4.805Zm76.823 41.535-5.958-.709 5.958.709Zm23.485-13.594 2.365-5.514-2.365 5.514Zm-57.396 15.331-5.958.709 5.958-.709Zm73.765-45.405-3.593 4.805 3.593-4.805Zm0-26.074 3.593 4.805-3.593-4.805ZM88.104 16a14 14 0 0 0-13.902 12.345l11.916 1.419A2 2 0 0 1 88.104 28V16Zm15.792 0H88.104v12h15.792V16Zm13.902 12.345A14 14 0 0 0 103.896 16v12a2 2 0 0 1 1.986 1.764l11.916-1.419Zm1.219 10.24-1.219-10.24-11.916 1.419 1.219 10.24 11.916-1.419Zm24.675 4.71-9.513 4.08 4.729 11.028 9.513-4.08-4.729-11.028Zm17.642 5.867a14 14 0 0 0-17.642-5.867l4.729 11.029a2 2 0 0 1 2.521.838l10.392-6Zm7.896 13.676-7.896-13.676-10.392 6 7.896 13.676 10.392-6Zm-3.74 18.212a14 14 0 0 0 3.74-18.212l-10.392 6a2 2 0 0 1-.535 2.602l7.187 9.61Zm-8.984 6.718 8.984-6.718-7.187-9.61-8.983 6.718 7.186 9.61Zm8.984 23.182-8.984-6.718-7.186 9.61 8.983 6.718 7.187-9.61Zm3.74 18.212a14 14 0 0 0-3.74-18.212l-7.187 9.61a2 2 0 0 1 .535 2.602l10.392 6Zm-7.896 13.676 7.896-13.676-10.392-6-7.896 13.676 10.392 6Zm-17.642 5.867a14 14 0 0 0 17.642-5.867l-10.392-6a2.001 2.001 0 0 1-2.521.838l-4.729 11.029Zm-9.513-4.08 9.513 4.08 4.729-11.029-9.512-4.079-4.73 11.028Zm-16.381 19.03 1.219-10.24-11.916-1.419-1.219 10.24 11.916 1.419ZM103.896 176a14 14 0 0 0 13.902-12.345l-11.916-1.419a2 2 0 0 1-1.986 1.764v12Zm-15.792 0h15.792v-12H88.104v12Zm-13.902-12.345A14 14 0 0 0 88.104 176v-12a2 2 0 0 1-1.986-1.764l-11.916 1.419Zm-1.012-8.504 1.012 8.504 11.916-1.419-1.012-8.504-11.916 1.419ZM51.428 134.31l-7.85 3.366 4.73 11.029 7.849-3.366-4.73-11.029Zm-7.85 3.366a2 2 0 0 1-2.52-.838l-10.392 6a14 14 0 0 0 17.642 5.867l-4.73-11.029Zm-2.52-.838-7.896-13.676-10.392 6 7.896 13.676 10.392-6Zm-7.896-13.676a2 2 0 0 1 .535-2.602l-7.187-9.61a14 14 0 0 0-3.74 18.212l10.392-6Zm.535-2.602 6.132-4.585-7.187-9.61-6.132 4.585 7.187 9.61ZM26.51 81.05l6.132 4.586 7.187-9.61-6.132-4.586-7.187 9.61Zm-3.74-18.212a14 14 0 0 0 3.74 18.212l7.187-9.61a2 2 0 0 1-.535-2.602l-10.392-6Zm7.896-13.676L22.77 62.838l10.392 6 7.896-13.676-10.392-6Zm17.642-5.867a14 14 0 0 0-17.642 5.867l10.392 6a2 2 0 0 1 2.52-.838l4.73-11.029Zm7.849 3.366-7.85-3.366-4.729 11.029 7.85 3.366 4.729-11.029Zm18.045-18.316-1.012 8.504 11.916 1.419 1.012-8.504-11.916-1.419Zm-1.754 27.552c6.078-3.426 11.69-9.502 12.658-17.63L73.19 36.85c-.382 3.209-2.769 6.415-6.635 8.595l5.893 10.453Zm-21.02 1.793c7.284 3.124 15.055 1.57 21.02-1.793l-5.893-10.453c-3.704 2.088-7.481 2.468-10.398 1.217l-4.73 11.029ZM49 96c0-7.1-2.548-15.022-9.171-19.975l-7.187 9.61C35.36 87.668 37 91.438 37 96h12Zm23.448 40.103c-5.965-3.363-13.736-4.917-21.02-1.793l4.729 11.029c2.917-1.251 6.694-.871 10.398 1.218l5.893-10.454Zm-32.62-20.128C46.452 111.022 49 103.1 49 96H37c0 4.563-1.64 8.333-4.358 10.365l7.187 9.61Zm78.679 19.575c-5.536 3.298-10.517 8.982-11.406 16.446l11.916 1.419c.329-2.765 2.318-5.582 5.632-7.557l-6.142-10.308Zm20.402-1.953c-7.094-3.042-14.669-1.463-20.402 1.953l6.142 10.308c3.382-2.015 6.872-2.372 9.53-1.233l4.73-11.028Zm-53.803 20.135c-.968-8.127-6.58-14.202-12.658-17.629l-5.893 10.454c3.866 2.179 6.253 5.385 6.635 8.594l11.916-1.419ZM141 96c0 6.389 2.398 13.414 8.32 17.842l7.186-9.61C154.374 102.638 153 99.668 153 96h-12Zm8.32-17.842C143.398 82.586 141 89.61 141 96h12c0-3.668 1.374-6.638 3.506-8.232l-7.186-9.61ZM118.507 56.45c5.733 3.416 13.308 4.995 20.401 1.953l-4.729-11.029c-2.658 1.14-6.148.782-9.53-1.233l-6.142 10.31Zm-11.406-16.446c.889 7.464 5.87 13.148 11.406 16.446l6.142-10.309c-3.314-1.974-5.303-4.79-5.632-7.556l-11.916 1.419Z" fill="#000"/><rect x="80" y="80" width="32" height="32" rx="6" stroke="#000" stroke-width="12"/><path d="M87 78V68m27 19h10m-37 37v-10M68 87h10m27-9V68m9 37h10m-19 19v-10m-37-9h10" stroke="#000" stroke-width="12" stroke-linecap="round" stroke-linejoin="round"/></svg>

<svg id="vector" xmlns="http://www.w3.org/2000/svg" width="192" height="192" viewBox="0 0 192 192"><path fill="#000000" d="M80.16,29.054L74.202,28.345V28.345L80.16,29.054ZM111.84,29.054L117.798,28.345V28.345L111.84,29.054ZM146.057,48.81L143.692,43.295L143.692,43.295L146.057,48.81ZM156.138,52.162L161.334,49.162V49.162L156.138,52.162ZM164.034,65.838L169.23,62.838V62.838L164.034,65.838ZM161.897,76.245L158.303,71.44L158.303,71.44L161.897,76.245ZM161.897,115.755L165.49,110.95L161.897,115.755ZM164.034,126.162L169.23,129.162V129.162L164.034,126.162ZM156.138,139.838L150.942,136.838L150.942,136.838L156.138,139.838ZM146.057,143.191L148.421,137.676L146.057,143.191ZM111.84,162.946L117.798,163.655L111.84,162.946ZM80.16,162.946L74.202,163.655V163.655L80.16,162.946ZM45.943,143.191L43.578,137.676H43.578L45.943,143.191ZM35.862,139.838L30.666,142.838H30.666L35.862,139.838ZM27.966,126.162L33.162,123.162H33.162L27.966,126.162ZM30.104,115.755L33.697,120.56H33.697L30.104,115.755ZM30.103,76.245L26.51,81.05L26.51,81.05L30.103,76.245ZM27.966,65.838L33.162,68.838H33.162L27.966,65.838ZM35.862,52.162L30.666,49.162L30.666,49.162L35.862,52.162ZM45.943,48.81L48.308,43.295L45.943,48.81ZM79.148,37.558L73.19,36.849L79.148,37.558ZM53.792,139.825L56.157,145.339L53.792,139.825ZM36.236,111.17L39.829,115.975L36.236,111.17ZM113.059,152.705L107.101,151.996L113.059,152.705ZM136.544,139.111L138.909,133.597L136.544,139.111ZM79.148,154.442L73.19,155.151L79.148,154.442ZM152.913,109.037L149.32,113.842L152.913,109.037ZM152.913,82.963L156.506,87.768L152.913,82.963ZM88.104,16C81.012,16 75.041,21.303 74.202,28.345L86.118,29.764C86.238,28.758 87.091,28 88.104,28V16ZM103.896,16H88.104V28H103.896V16ZM117.798,28.345C116.959,21.303 110.988,16 103.896,16V28C104.909,28 105.762,28.758 105.882,29.764L117.798,28.345ZM119.017,38.585L117.798,28.345L105.882,29.764L107.101,40.004L119.017,38.585ZM143.692,43.295L134.179,47.375L138.908,58.403L148.421,54.324L143.692,43.295ZM161.334,49.162C157.788,43.02 150.21,40.5 143.692,43.295L148.421,54.324C149.353,53.924 150.435,54.285 150.942,55.162L161.334,49.162ZM169.23,62.838L161.334,49.162L150.942,55.162L158.838,68.838L169.23,62.838ZM165.49,81.05C171.169,76.803 172.776,68.98 169.23,62.838L158.838,68.838C159.344,69.715 159.115,70.833 158.303,71.44L165.49,81.05ZM156.506,87.768L165.49,81.05L158.303,71.44L149.32,78.158L156.506,87.768ZM165.49,110.95L156.506,104.232L149.32,113.842L158.303,120.56L165.49,110.95ZM169.23,129.162C172.776,123.02 171.169,115.197 165.49,110.95L158.303,120.56C159.115,121.167 159.344,122.285 158.838,123.162L169.23,129.162ZM161.334,142.838L169.23,129.162L158.838,123.162L150.942,136.838L161.334,142.838ZM143.692,148.705C150.21,151.5 157.788,148.98 161.334,142.838L150.942,136.838C150.435,137.715 149.353,138.075 148.421,137.676L143.692,148.705ZM134.179,144.625L143.692,148.705L148.421,137.676L138.909,133.597L134.179,144.625ZM117.798,163.655L119.017,153.415L107.101,151.996L105.882,162.236L117.798,163.655ZM103.896,176C110.988,176 116.959,170.697 117.798,163.655L105.882,162.236C105.762,163.242 104.909,164 103.896,164V176ZM88.104,176H103.896V164H88.104V176ZM74.202,163.655C75.041,170.697 81.012,176 88.104,176V164C87.091,164 86.238,163.242 86.118,162.236L74.202,163.655ZM73.19,155.151L74.202,163.655L86.118,162.236L85.106,153.732L73.19,155.151ZM51.428,134.31L43.578,137.676L48.308,148.705L56.157,145.339L51.428,134.31ZM43.578,137.676C42.647,138.075 41.565,137.715 41.058,136.838L30.666,142.838C34.212,148.98 41.79,151.5 48.308,148.705L43.578,137.676ZM41.058,136.838L33.162,123.162L22.77,129.162L30.666,142.838L41.058,136.838ZM33.162,123.162C32.656,122.285 32.885,121.167 33.697,120.56L26.51,110.95C20.831,115.197 19.224,123.02 22.77,129.162L33.162,123.162ZM33.697,120.56L39.829,115.975L32.642,106.365L26.51,110.95L33.697,120.56ZM26.51,81.05L32.642,85.636L39.829,76.025L33.697,71.44L26.51,81.05ZM22.77,62.838C19.224,68.98 20.831,76.803 26.51,81.05L33.697,71.44C32.885,70.833 32.656,69.715 33.162,68.838L22.77,62.838ZM30.666,49.162L22.77,62.838L33.162,68.838L41.058,55.162L30.666,49.162ZM48.308,43.295C41.79,40.5 34.212,43.02 30.666,49.162L41.058,55.162C41.565,54.285 42.647,53.924 43.578,54.324L48.308,43.295ZM56.157,46.661L48.308,43.295L43.578,54.324L51.428,57.69L56.157,46.661ZM74.202,28.345L73.19,36.849L85.106,38.268L86.118,29.764L74.202,28.345ZM72.448,55.897C78.526,52.471 84.138,46.395 85.106,38.268L73.19,36.849C72.808,40.058 70.422,43.264 66.555,45.444L72.448,55.897ZM51.428,57.69C58.712,60.814 66.483,59.26 72.448,55.897L66.555,45.444C62.851,47.532 59.074,47.912 56.157,46.661L51.428,57.69ZM49,96C49,88.9 46.451,80.978 39.829,76.025L32.642,85.636C35.36,87.668 37,91.437 37,96H49ZM72.448,136.103C66.483,132.74 58.712,131.186 51.428,134.31L56.157,145.339C59.074,144.088 62.851,144.468 66.555,146.557L72.448,136.103ZM39.829,115.975C46.451,111.022 49,103.1 49,96H37C37,100.563 35.36,104.333 32.642,106.365L39.829,115.975ZM118.507,135.55C112.971,138.848 107.99,144.532 107.101,151.996L119.017,153.415C119.346,150.65 121.335,147.833 124.649,145.858L118.507,135.55ZM138.909,133.597C131.815,130.555 124.24,132.134 118.507,135.55L124.649,145.858C128.031,143.843 131.521,143.486 134.179,144.625L138.909,133.597ZM85.106,153.732C84.138,145.605 78.526,139.53 72.448,136.103L66.555,146.557C70.422,148.736 72.808,151.942 73.19,155.151L85.106,153.732ZM141,96C141,102.389 143.398,109.414 149.32,113.842L156.506,104.232C154.374,102.638 153,99.668 153,96H141ZM149.32,78.158C143.398,82.586 141,89.611 141,96H153C153,92.332 154.374,89.362 156.506,87.768L149.32,78.158ZM118.507,56.45C124.24,59.866 131.815,61.445 138.908,58.403L134.179,47.375C131.521,48.514 128.031,48.157 124.649,46.141L118.507,56.45ZM107.101,40.004C107.99,47.468 112.971,53.152 118.507,56.45L124.649,46.141C121.335,44.167 119.346,41.35 119.017,38.585L107.101,40.004Z" id="path_0"/><path fill="#00000000" d="M86,80L106,80A6,6 0,0 1,112 86L112,106A6,6 0,0 1,106 112L86,112A6,6 0,0 1,80 106L80,86A6,6 0,0 1,86 80z" stroke-width="12" stroke="#000000" id="path_1"/><path fill="#00000000" d="M87,78V68" stroke-linejoin="round" stroke-width="12" stroke="#000000" stroke-linecap="round" id="path_2"/><path fill="#00000000" d="M114,87L124,87" stroke-linejoin="round" stroke-width="12" stroke="#000000" stroke-linecap="round" id="path_3"/><path fill="#00000000" d="M87,124V114" stroke-linejoin="round" stroke-width="12" stroke="#000000" stroke-linecap="round" id="path_4"/><path fill="#00000000" d="M68,87L78,87" stroke-linejoin="round" stroke-width="12" stroke="#000000" stroke-linecap="round" id="path_5"/><path fill="#00000000" d="M105,78V68" stroke-linejoin="round" stroke-width="12" stroke="#000000" stroke-linecap="round" id="path_6"/><path fill="#00000000" d="M114,105L124,105" stroke-linejoin="round" stroke-width="12" stroke="#000000" stroke-linecap="round" id="path_7"/><path fill="#00000000" d="M105,124V114" stroke-linejoin="round" stroke-width="12" stroke="#000000" stroke-linecap="round" id="path_8"/><path fill="#00000000" d="M68,105L78,105" stroke-linejoin="round" stroke-width="12" stroke="#000000" stroke-linecap="round" id="path_9"/></svg>
